svgs/sharp-regular/seat-airline.svg

<svg xmlns="http://www.w3.org/2000/svg" viewBox="0 0 448 512"><!--! Font Awesome Pro 6.6.0 by @fontawesome - https://fontawesome.com License - https://fontawesome.com/license (Commercial License) Copyright 2024 Fonticons, Inc. --><path d="M48 24L48 0 0 0 0 24 0 160l0 5.1 2.1 4.7 104 232 6.4 14.2 15.5 0 88 0 0 48-96 0-24 0 0 48 24 0 240 0 24 0 0-48-24 0-96 0 0-48 104 0 16 0 6.2-14.8 40-96L444 272l-36 0-307.5 0L86.2 240 328 240l24 0 0-48-24 0L64.6 192 48 154.9 48 24zm95.5 344L122 320l250 0-20 48-208.5 0z"/></svg>

<svg xmlns="http://www.w3.org/2000/svg" viewBox="0 0 448 512"><!--! Font Awesome Pro 6.4.0 by @fontawesome - https://fontawesome.com License - https://fontawesome.com/license (Commercial License) Copyright 2023 Fonticons, Inc. --><path d="M48 24V0H0V24 160v5.1l2.1 4.7 104 232 6.4 14.2H128h88v48H120 96v48h24H360h24V464H360 264V416H368h16l6.2-14.8 40-96L444 272H408 100.5L86.2 240H328h24V192H328 64.6L48 154.9V24zm95.5 344L122 320H372l-20 48H143.5z"/></svg>
